assets/icons/qvision/mark_email_unread.svg

<svg xmlns="http://www.w3.org/2000/svg" enable-background="new 0 0 24 24" height="24" viewBox="0 0 24 24" width="24"><g><rect fill="none" height="24" width="24"/><path d="M22,8.98V18c0,1.1-0.9,2-2,2H4c-1.1,0-2-0.9-2-2V6c0-1.1,0.9-2,2-2h10.1C14.04,4.32,14,4.66,14,5 c0,1.48,0.65,2.79,1.67,3.71L12,11L4,6v2l8,5l5.3-3.32C17.84,9.88,18.4,10,19,10C20.13,10,21.16,9.61,22,8.98z M16,5 c0,1.66,1.34,3,3,3s3-1.34,3-3s-1.34-3-3-3S16,3.34,16,5z"/></g></svg>

<svg width="24" height="24" viewBox="0 0 24 24" fill="none" xmlns="http://www.w3.org/2000/svg">
<g clip-path="url(#clip0_147_1887)">
<path d="M22 8.98V18C22 19.1 21.1 20 20 20H4C2.9 20 2 19.1 2 18V6C2 4.9 2.9 4 4 4H14.1C14.04 4.32 14 4.66 14 5C14 6.48 14.65 7.79 15.67 8.71L12 11L4 6V8L12 13L17.3 9.68C17.84 9.88 18.4 10 19 10C20.13 10 21.16 9.61 22 8.98ZM16 5C16 6.66 17.34 8 19 8C20.66 8 22 6.66 22 5C22 3.34 20.66 2 19 2C17.34 2 16 3.34 16 5Z" fill="#323232"/>
</g>
<defs>
<clipPath id="clip0_147_1887">
<rect width="24" height="24" fill="white"/>
</clipPath>
</defs>
</svg>
